!!!!SEGMENT: pl-gd--ee-2628--006-020_stabile-annibale--il-terzo-libro-de-madrigali-a-cinque-voci-donna-co-l-vostro-sguardo.krn
!!!cenid: 15xx:1087
!!!COM: Stabile, Annibale
!!!COM-rismID: pe30009662
!!!CDT: ~1535-1595/04
!!!CNT: Italian
!!!GTL: Il terzo libro de madrigali a cinque voci
!!!OTL: Donna co’l vostro sguardo
!!!OMV: 020
!!!PDT: 1585
!!!AGN:
!!!SMS-siglum: PL-GD
!!!SMS-shelfmark: Ee 2628
!!!SMS-shelfwork: 006-020 G
!!!SMS-variant:
!!!SMS-altvar:
!!!NIFC-rismSourceID: 990060530
!!!NIFC-islandoraID: pl-gd:66139
!!!URL-pdf-islandora: https://repozytorium.nifc.pl/islandora/object/pl-gd%3A66139/datastream/PDF/view
!!!URL-scan: https://polish.musicsources.pl/pl/lokalizacje/galeria/klocki-introligatorskie/673 @EN{Scan on Polish Music Sources Website} @PL{Skany w portalu Dziedzictwo Muzyki Polskiej w otwartym dostępie}
!!!ONB-nifc: UWAGA: Canto: s. 90-101, Tenore: s. 246-257, Basso: s. 402-413, Quinto: s. 724-735. Dla głosu Alto proszę skorzystać z https://pbc.gda.pl/dlibra/publication/87582/edition/79411/content, str. 25-48. Uwaga: utwory podzielone wg spisu treści dostępnych na końcu ksiąg – proszę sprawdzać sąsiednie tytuły. Głos Quinto proszę umieszczać wg ambitusu (może się różnić w zależności od utworu).
!!!AIN: 1 alto 1 bass 1 soprn 1 tenor 1 vox
!!!key: F
**kern	**text	**kern	**text	**kern	**text	**kern	**text	**kern	**text
*part5	*part5	*part4	*part4	*part3	*part3	*part2	*part2	*part1	*part1
*staff5	*staff5	*staff4	*staff4	*staff3	*staff3	*staff2	*staff2	*staff1	*staff1
*I"BASSO	*	*I"TENORE	*	*I"ALTO	*	*I"QVINTO	*	*I"CANTO	*
*I'B	*	*I'T	*	*I'A	*	*I'V	*	*I'S	*
*ICvox	*	*ICvox	*	*ICvox	*	*ICvox	*	*ICvox	*
*Ibass	*	*Itenor	*	*Ialto	*	*Ivox	*	*Isoprn	*
*clefF3	*	*clefC3	*	*clefC2	*	*clefG2	*	*clefG2	*
*k[]	*	*k[]	*	*k[]	*	*k[]	*	*k[]	*
*F:	*	*F:	*	*F:	*	*F:	*	*F:	*
*M2/1	*	*M2/1	*	*M2/1	*	*M2/1	*	*M2/1	*
*met(C)	*	*met(C)	*	*met(C)	*	*met(C)	*	*met(C)	*
=1-	=1-	=1-	=1-	=1-	=1-	=1-	=1-	=1-	=1-
1r	.	1f	DOn-	1r	.	0r	.	1r	.
1F	DOn-	1c	-na	1a	DOn-	.	.	1ff	DOn-
=2-	=2-	=2-	=2-	=2-	=2-	=2-	=2-	=2-	=2-
1C	-na	2r	.	1g	-na	1cc	DOn-	2ee\	-na
.	.	4r	.	.	.	.	.	4r	.
.	.	4c/	co'l	.	.	.	.	4ee\	co'l
1r	.	4c/	voſ-	4r	.	2g/	-na	4ee\	vo-
.	.	4e\	-tro	4g\	co'l	.	.	4gg\	-ſtro
.	.	2d\	sguar-	4a\	voſ-	2r	.	2ff\	sguar-
.	.	.	.	4b\	-tro	.	.	.	.
=3-	=3-	=3-	=3-	=3-	=3-	=3-	=3-	=3-	=3-
4r	.	2c/	-do	4.cc\	sguar-	4r	.	1ee	-do
4A\	co'l	.	.	.	.	4cc\	co'l	.	.
.	.	.	.	8b\	.	.	.	.	.
4A\	vo-	4r	.	4a\	.	4cc\	voſ-	.	.
*	*	*	*ij	*	*	*	*	*	*
4c\	-ſtro	4e\	co'l	4g\	-do	4ee\	-tro	.	.
2B-X\	sguar-	4f\	voſ-	2r	.	2dd\	sguar-	1r	.
.	.	4g\	-tro	.	.	.	.	.	.
2A\	-do	2a\	sguar-	4r	.	2cc\	-do	.	.
.	.	.	.	4a\	co'l	.	.	.	.
=4-	=4-	=4-	=4-	=4-	=4-	=4-	=4-	=4-	=4-
1r	.	2f\	-do	4a\	voſ-	1r	.	1ff	Don-
.	.	.	.	4cc\	-tro	.	.	.	.
*	*	*	*Xij	*	*	*	*	*	*
.	.	2r	.	2b-X\	sguar-	.	.	.	.
*	*	*custos:f	*	*custos:a	*	*	*	*	*
!	!	!LO:LB:g=original	!	!LO:LB:g=original	!	!	!	!	!
4r	.	1f	Don-	4a\	-do	2r	.	1cc	-na
4F/	In-	.	.	4a\	In-	.	.	.	.
4.F/	-ce-	.	.	4.a\	-ce-	1cc\	Don-	.	.
8G\	-ne-	.	.	8bny\	-ne-	.	.	.	.
*custos:A	*	*	*	*	*	*	*	*	*
!LO:LB:g=original	!	!	!	!	!	!	!	!	!
=5-	=5-	=5-	=5-	=5-	=5-	=5-	=5-	=5-	=5-
4A\	-riſ-	2c/	-na	4a\	-riſ-	.	.	2r	.
4E/	co et	.	.	4g\	co et	.	.	.	.
2F/	ar-	4r	.	2f\	ar-	2a/	-na	4r	.
.	.	4c/	co'l	.	.	.	.	4cc\	co'l
2C/	-do	4c/	voſ-	2e/	-do	4r	.	4ee\	voſ-
.	.	4e\	-tro	.	.	4g/	co'l	4gg\	-tro
*	*ij	*	*	*	*ij	*custos:a	*	*custos:ff	*
!	!	!	!	!	!	!LO:LB:g=original	!	!LO:LB:g=original	!
2r	.	2d\	sguar-	2r	.	4a/	voſ-	2ff\	sguar-
.	.	.	.	.	.	4b/	-tro	.	.
=6-	=6-	=6-	=6-	=6-	=6-	=6-	=6-	=6-	=6-
4r	.	1c	-do	4r	.	2cc\	sguar-	4ee\	do In-
4F/	In-	.	.	4cc\	In-	.	.	4a/	-ce-
4.F/	-ce-	.	.	4.cc\	-ce-	2f/	-do	4.a/	-ne-
8G\	-ne-	.	.	8b\	-ne-	.	.	8b/	-riſ-
4A\	-riſ-	2r	.	4a\	-riſ-	2r	.	4cc\	-co
4E/	co et	.	.	4g\	co et	.	.	4b/	et
2F/	ar-	4r	.	2f\	ar-	4r	.	4.a/	ar-
.	.	4c/	In-	.	.	4ff\	In-	.	.
.	.	.	.	.	.	.	.	8b\	.
=7-	=7-	=7-	=7-	=7-	=7-	=7-	=7-	=7-	=7-
2C/	-do	4.c/	-ce-	0g	-do	4.ee\	-ce-	2cc\	.
.	.	8d\	-ne-	.	.	8ff\	-ne-	.	.
2r	.	4e\	-riſ-	.	.	4gg\	-riſ-	4b/	-do
.	.	4B/	co et	.	.	4gg\	co et	4dd\	et
1r	.	2c/	ar-	.	.	2ee\	ar-	2cc\	ar-
.	.	2G/	-do	.	.	2dd\	-do	2b/	-do
*	*Xij	*	*	*	*Xij	*	*	*	*
=8-	=8-	=8-	=8-	=8-	=8-	=8-	=8-	=8-	=8-
2r	.	2r	.	2r	.	2r	.	2r	.
2.G\	et	2.d\	et	2.g\	et	2.b/	et	2.gg\	et
4G\	ſe	4d\	ſe	4g\	ſe	4b/	ſe	4gg\	ſe
2D/	non	2d\	non	2a\	non	2dd\	non	2ff\	non
*	*	*custos:A	*	*	*	*	*	*	*
!	!	!LO:LB:g=original	!	!	!	!	!	!	!
=9-	=9-	=9-	=9-	=9-	=9-	=9-	=9-	=9-	=9-
2F/	me	2A/	me	2.a\	me	2cc\	me	2ff\	me
2A\	mi-	4A/	mi-	.	.	2cc\	mi-	2ee\	mi-
.	.	2a\	-ra-	4A/	mi-	.	.	.	.
*custos:E	*	*	*	*custos:e	*	*	*	*custos:ee	*
!LO:LB:g=original	!	!	!	!LO:LB:g=original	!	!	!	!LO:LB:g=original	!
2E/	-ra-	.	.	1e	-ra-	1b	-ra-	1.ee	-ra-
.	.	8g#X\	.	.	.	.	.	.	.
.	.	8f#X\	.	.	.	.	.	.	.
4E/	-te	2g#X\	.	.	.	.	.	.	.
4E/	Di	.	.	.	.	.	.	.	.
=10-	=10-	=10-	=10-	=10-	=10-	=10-	=10-	=10-	=10-
2c\	fred-	4a\	-te	1A	-te	1a	-te	.	.
.	.	4e\	Di	.	.	.	.	.	.
4A\	-do	4fny\	fred-	.	.	.	.	2cc\	-te
2c\	ghia-	4e\	-do	.	.	.	.	.	.
*	*	*	*	*	*	*custos:a	*	*	*
!	!	!	!	!	!	!LO:LB:g=original	!	!	!
.	.	2gny\	ghia-	1r	.	2r	.	1r	.
4Bny\	cio ogn'-	.	.	.	.	.	.	.	.
4A\	-hor	4f\	cio ogn'-	.	.	4a/	Di	.	.
4A\	mo-	2e\	-hor	.	.	4cc\	fred-	.	.
=11-	=11-	=11-	=11-	=11-	=11-	=11-	=11-	=11-	=11-
4G\	-rir	.	.	2r	.	4b/	-do	2r	.
4E/	mi	4e\	mo-	.	.	2cc\	ghia-	.	.
2F/	fa-	2.c/	-rir	2a\	Di	.	.	4r	.
.	.	.	.	.	.	4f/	cio ogn'-	4cc\	Di
2C/	-te	.	.	2cc\	fred-	4g/	-hor	2ee\	fred-
.	.	4c/	mi	.	.	4e/	mo-	.	.
2r	.	2c/	fa-	4a\	-do	4e/	-rir	4cc\	-do
.	.	.	.	2cc\	ghiac-	4e/	mi	2ee\	ghia-
*	*	*custos:G	*	*	*	*	*	*	*
!	!	!LO:LB:g=original	!	!	!	!	!	!	!
=12-	=12-	=12-	=12-	=12-	=12-	=12-	=12-	=12-	=12-
2r	.	2G/	-te	.	.	2g/	fa-	.	.
.	.	.	.	4b\	cio ogn'-	.	.	4dd\	cio ogn'-
2A\	Di	2r	.	4.a\	-hor	4e/	-te	4.cc\	-hor
.	.	.	.	.	.	4cc\	Di	.	.
.	.	.	.	16g\	.	.	.	16b/	.
.	.	.	.	16f\	.	.	.	16a/	.
2c\	fred-	1r	.	8e\	.	2ee\	fred-	2g/	.
.	.	.	.	8f\	.	.	.	.	.
.	.	.	.	8g\	.	.	.	.	.
.	.	.	.	8e\	.	.	.	.	.
4A\	-do	.	.	4f\	.	4cc\	-do	2a/	mo-
2c\	ghia-	.	.	8e/	.	2ee\	giac-	.	.
.	.	.	.	8d/	.	.	.	.	.
=13-	=13-	=13-	=13-	=13-	=13-	=13-	=13-	=13-	=13-
.	.	0r	.	8e\	.	.	.	4g/	-rir
.	.	.	.	8f\	.	.	.	.	.
4B\	cio o-	.	.	4g\	.	4dd\	cio ogn'-	4b/	mi
*custos:A	*	*	*	*	*	*	*	*	*
!LO:LB:g=original	!	!	!	!	!	!	!	!	!
4A\	-gn'hor	.	.	4c/	mo-	4cc\	-hor	1cc	fa-
x4F/	mo-	.	.	4f\	-rir	4a/	mo-	.	.
*	*	*	*	*custos:e	*	*custos:a	*	*	*
!	!	!	!	!LO:LB:g=original	!	!LO:LB:g=original	!	!	!
4.A\	-rir	.	.	4e\	mi	4a/	-rir	.	.
.	.	.	.	4.f\	fa-	4a/	mi	.	.
8B\	mi	.	.	.	.	.	.	.	.
2c\	fa-	.	.	.	.	2g/	fa-	2cc\	-te
.	.	.	.	8e\	.	.	.	.	.
.	.	.	.	4e\	.	.	.	.	.
=14-	=14-	=14-	=14-	=14-	=14-	=14-	=14-	=14-	=14-
1F	-te	2r	.	2f\	-te	2a/	-te	2r	.
.	.	2f\	Pe-	2a\	Pe-	2cc\	Pe-	2ff\	Pe-
*	*	*	*	*	*	*	*	*custos:ff	*
!	!	!	!	!	!	!	!	!LO:LB:g=original	!
1r	.	2.B-X/	-rò	2b-X\	-rò	2.dd\	-rò	2.ff\	-rò
.	.	.	.	2f\	s'ho-	.	.	.	.
.	.	4d\	s'ho-	.	.	4a/	s'ho-	4dd\	s'ho-
=15-	=15-	=15-	=15-	=15-	=15-	=15-	=15-	=15-	=15-
00r	.	4c/	-da	4g\	-da	4cc\	-da	4ee\	-da
.	.	4A/	pe-	2f\	pe-	4cc\	pe-	4ff\	pe-
.	.	2G/	-ri-	.	.	2b-X/	-ri-	2gg\	-ri-
.	.	.	.	4e/	-ri-	.	.	.	.
.	.	2F/	-re	2f\	-re	1a	-re	0cc	-re
.	.	2F/	Per	4r	.	.	.	.	.
.	.	.	.	4f\	Per	.	.	.	.
=16-	=16-	=16-	=16-	=16-	=16-	=16-	=16-	=16-	=16-
.	.	2A/	ap-	2e/	ap-	1r	.	.	.
.	.	4A/	-pa-	4a\	-pa-	.	.	.	.
.	.	2c/	-gar	2g\	-gar	.	.	.	.
.	.	.	.	.	.	2a/	Per	1r	.
.	.	4d\	al-	4f\	al-	.	.	.	.
.	.	2.c/	-men	4g\	-men	2cc\	ap-	.	.
.	.	.	.	4e/	il	.	.	.	.
=17-	=17-	=17-	=17-	=17-	=17-	=17-	=17-	=17-	=17-
0r	.	.	.	2g\	mio	4cc\	-pa-	0r	.
.	.	4c/	al-	.	.	2ee\	-gar	.	.
*	*	*	*	*custos:a	*	*	*	*	*
!	!	!	!	!LO:LB:g=original	!	!	!	!	!
.	.	4c/	-mio	2a\	de-	.	.	.	.
.	.	4F/	de-	.	.	4ff\	al-	.	.
*	*	*custos:c	*	*	*	*	*	*	*
!	!	!LO:LB:g=original	!	!	!	!	!	!	!
.	.	1c	-ſi-	2.g\	-ſi-	2ee\	-men	.	.
.	.	.	.	.	.	4cc\	il	.	.
.	.	.	.	4e/	.	2cc\	mio	.	.
=18-	=18-	=18-	=18-	=18-	=18-	=18-	=18-	=18-	=18-
2r	.	1F	-re	1f	.	.	.	2r	.
.	.	.	.	.	.	4a/	de-	.	.
*	*	*	*	*	*	*custos:cc	*	*	*
!	!	!	!	!	!	!LO:LB:g=original	!	!	!
2F/	Per	.	.	.	.	2cc\	-ſi-	2a/	Per
2A\	ap-	1r	.	1e	-re	2a/	-re	2cc\	ap-
4A\	-pa-	.	.	.	.	2r	.	4cc\	-pa-
2c\	-gar	.	.	.	.	.	.	2ee\	-gar
=19-	=19-	=19-	=19-	=19-	=19-	=19-	=19-	=19-	=19-
*	*	*	*	*	*	*	*ij	*	*
.	.	00r	.	4r	.	2a/	Per	.	.
4d\	al-	.	.	4d/	Per	.	.	4ff\	al-
2.c\	-men	.	.	2e/	ap-	2cc\	ap-	2.ee\	-men
.	.	.	.	4e/	-pa-	4cc\	-pa-	.	.
4c\	il	.	.	2g\	-gar	2ee\	-gar	4cc\	il
4c\	mio	.	.	.	.	.	.	4cc\	mio
4F/	de-	.	.	4a\	al-	4ff\	al-	4cc\	de-
=20-	=20-	=20-	=20-	=20-	=20-	=20-	=20-	=20-	=20-
0c	-ſi-	.	.	2.g\	-men	2.ee\	-men	2cc\	-ſi-
.	.	.	.	.	.	.	.	2g/	-re
.	.	.	.	4e/	il	4cc\	il	.	.
.	.	.	.	4g\	mio	4cc\	mio	1r	.
.	.	.	.	4f\	de-	4a/	de-	.	.
.	.	.	.	2e/	-ſi-	2g/	-ſi-	.	.
*custos:F	*	*	*	*	*	*	*	*	*
!LO:LB:g=original	!	!	!	!	!	!	!	!	!
=21-	=21-	=21-	=21-	=21-	=21-	=21-	=21-	=21-	=21-
1F	-re	1f	Fa-	1a	-re	2f/	-re	2r	.
*	*	*	*	*	*	*	*Xij	*	*
.	.	.	.	.	.	1cc	Fa-	1a	Fa-
1r	.	2e\	-te	1r	.	.	.	.	.
*	*	*	*	*	*	*	*	*custos:g	*
!	!	!	!	!	!	!	!	!LO:LB:g=original	!
.	.	4r	.	.	.	2bny/	-te	2g/	-te
.	.	4e\	ch'io	.	.	.	.	.	.
=22-	=22-	=22-	=22-	=22-	=22-	=22-	=22-	=22-	=22-
0r	.	4f\	ven-	0r	.	4r	.	2r	.
.	.	4g\	-ga	.	.	4b/	ch'io	.	.
.	.	4a\	me-	.	.	4cc\	ven-	4r	.
.	.	4g\	no a	.	.	4dd\	-ga	4b/	ch'io
.	.	4c/	po-	.	.	4ee\	me-	4cc\	ven-
.	.	4Bny/	co a	.	.	4dd\	no a	4dd\	-ga
*	*	*	*	*	*	*custos:cc	*	*	*
!	!	!	!	!	!	!LO:LB:g=original	!	!	!
.	.	4c/	po-	.	.	4cc\	po-	4ee\	me-
.	.	4G/	-co	.	.	4b/	co a	4dd\	no a
=23-	=23-	=23-	=23-	=23-	=23-	=23-	=23-	=23-	=23-
1r	.	1r	.	1r	.	4a/	po-	4cc\	po-
.	.	.	.	.	.	4g/	-co	4b/	co a
.	.	.	.	.	.	2r	.	4a/	po-
.	.	.	.	.	.	.	.	4g/	-co
1F	Fa-	2r	.	2r	.	1cc	Fa-	1r	.
.	.	1f\	Fa-	1a\	Fa-	.	.	.	.
*	*	*	*	*custos:g	*	*	*	*	*
!	!	!	!	!LO:LB:g=original	!	!	!	!	!
=24-	=24-	=24-	=24-	=24-	=24-	=24-	=24-	=24-	=24-
2C/	-te	.	.	.	.	1cc	-te	00r	.
4r	.	2e\	-te	2g\	-te	.	.	.	.
4c\	ch'io	.	.	.	.	.	.	.	.
4B\	ven-	2r	.	4r	.	4r	.	.	.
4A\	-ga	.	.	4cc\	ch'io	4a/	ch'io	.	.
4G\	me-	4r	.	4bny\	ven-	4b/	ven-	.	.
4F/	no a	4f\	ch'io	4a\	-ga	4cc\	-ga	.	.
*	*	*custos:e	*	*	*	*	*	*	*
!	!	!LO:LB:g=original	!	!	!	!	!	!	!
=25-	=25-	=25-	=25-	=25-	=25-	=25-	=25-	=25-	=25-
4C/	po-	4e\	ven-	4g\	me-	4cc\	me-	.	.
4D/	co a	4d\	-ga	4f\	no a	4a/	no a	.	.
2E/	po-	4c/	me-	4e/	po-	4a/	po-	.	.
.	.	4B/	no a	4d/	co a	4g/	co a	.	.
1E	-co	4B/	po-	4.c/	po-	2e/	po-	.	.
.	.	4A/	co a	.	.	.	.	.	.
.	.	.	.	16B/	.	.	.	.	.
.	.	.	.	16A/	.	.	.	.	.
.	.	2G#X/	po-	2B/	.	2e/	-co	.	.
=26-	=26-	=26-	=26-	=26-	=26-	=26-	=26-	=26-	=26-
00r	.	1A	-co	2A/	-co	1ee	Non	2r	.
.	.	.	.	1a	Non	.	.	1cc	Non
.	.	1r	.	.	.	2ff#X\	di	.	.
.	.	.	.	2b\	di	2gg\	gel	2dd\	di
*	*	*	*	*	*	*custos:gg	*	*	*
!	!	!	!	!	!	!LO:LB:g=original	!	!	!
=27-	=27-	=27-	=27-	=27-	=27-	=27-	=27-	=27-	=27-
.	.	0r	.	2cc\	gel	4r	.	2ee\	gel
.	.	.	.	.	.	2gg\	ma	.	.
.	.	.	.	1cc	ma	.	.	2ee\	ma
.	.	.	.	.	.	4ee\	di	.	.
.	.	.	.	.	.	4ffny\	fo-	2a/	di
.	.	.	.	.	.	4ee\	.	.	.
*	*	*	*	*	*	*	*	*custos:cc	*
!	!	!	!	!	!	!	!	!LO:LB:g=original	!
.	.	.	.	2a\	di	4ee\	.	2.cc\	fo-
.	.	.	.	.	.	8dd\	.	.	.
.	.	.	.	.	.	8cc\	.	.	.
=28-	=28-	=28-	=28-	=28-	=28-	=28-	=28-	=28-	=28-
1r	.	1r	.	1.g	fo-	1dd	.	.	.
.	.	.	.	.	.	.	.	8b/	.
.	.	.	.	.	.	.	.	8a/	.
.	.	.	.	.	.	.	.	2b/	.
1c	Non	2r	.	.	.	1ee	-co	1cc	-co
.	.	1g\	Non	2e\	-co	.	.	.	.
=29-	=29-	=29-	=29-	=29-	=29-	=29-	=29-	=29-	=29-
2B\	di	.	.	1r	.	00r	.	00r	.
2A\	gel	2f\	di	.	.	.	.	.	.
*custos:A	*	*	*	*custos:cc	*	*	*	*	*
!LO:LB:g=original	!	!	!	!LO:LB:g=original	!	!	!	!	!
4r	.	2e\	gel	2r	.	.	.	.	.
2A\	ma	.	.	.	.	.	.	.	.
.	.	4r	.	2cc\	Non	.	.	.	.
4A\	di	2e\	ma	.	.	.	.	.	.
=30-	=30-	=30-	=30-	=30-	=30-	=30-	=30-	=30-	=30-
4G\	fo-	.	.	2b\	di	.	.	.	.
8F/	.	4e\	di	.	.	.	.	.	.
8E/	.	.	.	.	.	.	.	.	.
2F/	.	4.c/	fo-	2a\	gel	.	.	.	.
.	.	8d\	.	.	.	.	.	.	.
1C	-co	2e\	.	4r	.	.	.	.	.
.	.	.	.	2g\	ma	.	.	.	.
*	*	*custos:c	*	*	*	*	*	*	*
!	!	!LO:LB:g=original	!	!	!	!	!	!	!
.	.	1c\	-co	.	.	.	.	.	.
.	.	.	.	4g\	di	.	.	.	.
=31-	=31-	=31-	=31-	=31-	=31-	=31-	=31-	=31-	=31-
1r	.	.	.	4g\	fo-	2r	.	2r	.
.	.	.	.	8f\	.	.	.	.	.
.	.	.	.	8e\	.	.	.	.	.
.	.	2r	.	2f\	.	2a/	Fa-	1cc	Fa-
1c	Fa-	2r	.	1e	-co	2g/	-te	.	.
.	.	2e\	Fa-	.	.	2cc\	ch'io	2g/	-te
=32-	=32-	=32-	=32-	=32-	=32-	=32-	=32-	=32-	=32-
2G\	-te	2d\	-te	1r	.	4b/	ven-	4r	.
.	.	.	.	.	.	4g/	-ga	4gg\	ch'io
4r	.	2r	.	.	.	4a/	me-	4ff\	ven-
4c\	ch'io	.	.	.	.	4g/	no a	4ee\	-ga
4B\	ven-	2r	.	4r	.	4g/	po-	4dd\	me-
4A\	-ga	.	.	4cc\	ch'io	4a/	co a	4cc\	no a
4G\	me-	4r	.	4b\	ven-	4d/	po-	4dd\	po-
4F/	no a	4f\	ch'io	4a\	-ga	4d/	-co	4dd\	co a
*	*	*	*	*	*	*custos:ee	*	*	*
!	!	!	!	!	!	!LO:LB:g=original	!	!	!
=33-	=33-	=33-	=33-	=33-	=33-	=33-	=33-	=33-	=33-
4C/	po-	4e\	ven-	4g\	me-	1r	.	4ee\	po-
4D/	co a	4d\	-ga	4f\	no a	.	.	4a/	-co
*	*	*	*	*	*	*	*	*custos:g	*
!	!	!	!	!	!	!	!	!LO:LB:g=original	!
2E/	po-	4c/	me-	4e/	po-	.	.	4r	.
.	.	4B/	no a	4d/	co a	.	.	4g/	a
*custos:E	*	*	*	*custos:c	*	*	*	*	*
!LO:LB:g=original	!	!	!	!LO:LB:g=original	!	!	!	!	!
1E	-co	4B/	po-	4.c/	po-	1r	.	4g/	po-
.	.	4A/	co a	.	.	.	.	4e/	co a
.	.	.	.	16B/	.	.	.	.	.
.	.	.	.	16A/	.	.	.	.	.
.	.	2G#X/	po-	2B/	.	.	.	4e/	po-
.	.	.	.	.	.	.	.	4e/	-co
=34-	=34-	=34-	=34-	=34-	=34-	=34-	=34-	=34-	=34-
00r	.	1A	-co	2A/	-co	1ee	Non	2r	.
.	.	.	.	1a	Non	.	.	1cc	Non
.	.	1r	.	.	.	2ff#X\	di	.	.
.	.	.	.	2b\	di	2gg\	gel	2dd\	di
=35-	=35-	=35-	=35-	=35-	=35-	=35-	=35-	=35-	=35-
.	.	0r	.	2cc\	gel	4r	.	2ee\	gel
.	.	.	.	.	.	2gg\	ma	.	.
.	.	.	.	1cc	ma	.	.	2ee\	ma
.	.	.	.	.	.	4ee\	di-	.	.
.	.	.	.	.	.	4ffny\	-fo-	2a/	di
.	.	.	.	.	.	4ee\	.	.	.
.	.	.	.	2a\	di	4ee\	.	2.cc\	fo-
.	.	.	.	.	.	8dd\	.	.	.
.	.	.	.	.	.	8cc\	.	.	.
=36-	=36-	=36-	=36-	=36-	=36-	=36-	=36-	=36-	=36-
1r	.	1r	.	1g	fo-	1dd	.	.	.
.	.	.	.	.	.	.	.	8b/	.
.	.	.	.	.	.	.	.	8a/	.
.	.	.	.	.	.	.	.	2b/	.
2r	.	1A	Non	2c/	-co	2ee\	-co	2cc\	-co
1D/	Non	.	.	1d/	Non	1a/	Non	1ff\	Non
=37-	=37-	=37-	=37-	=37-	=37-	=37-	=37-	=37-	=37-
.	.	2B/	di	.	.	.	.	.	.
2E/	di	1c	gel	2G/	di	2g/	di	2ee\	di
2F/	gel	.	.	1A	gel	2f/	gel	2a/	gel
*	*	*custos:c	*	*	*	*	*	*custos:cc	*ij
!	!	!LO:LB:g=original	!	!	!	!	!	!LO:LB:g=original	!
1F\	ma	2c/	ma	.	.	1a/	Non	1cc\	Non
=38-	=38-	=38-	=38-	=38-	=38-	=38-	=38-	=38-	=38-
.	.	1F	di	1f	ma	.	.	.	.
2D/	di	.	.	.	.	2b/	di	2dd\	di
0.C	fo-	1Gny	fo-	2e/	di	2cc\	gel	2ee\	gel
*	*	*	*	*lig	*	*	*	*	*Xij
.	.	.	.	1g\	fo-	1cc\	ma	1ee\	ma
=39-	=39-	=39-	=39-	=39-	=39-	=39-	=39-	=39-	=39-
.	.	00c/	-co.	.	.	.	.	.	.
.	.	.	.	1f	.	2a/	di	2cc\	di
.	.	.	.	.	.	1g	fo-	1cc	fo-
*	*	*	*	*Xlig	*	*	*	*	*
.	.	.	.	2e\	.	.	.	.	.
=40-	=40-	=40-	=40-	=40-	=40-	=40-	=40-	=40-	=40-
!LO:N:vis=00	!	!	!	!LO:N:vis=00	!	!LO:N:vis=00	!	!LO:N:vis=00	!
0F/	-co.	.	.	0f	-co.	0a	-co.	0cc	-co.
==	==	==	==	==	==	==	==	==	==
*-	*-	*-	*-	*-	*-	*-	*-	*-	*-
!!!system-decoration: [(s1,s2,s3,s4,s5)]
!!!ENC: Mateusz Solarz
!!!END: 2022-07-12
!!!ENC: Jan Barakat
!!!END: 2022-08-04
